{"type":"map","version":"1.10","orientation":"orthogonal","renderorder":"right-down","width":30,"height":15,"tilewidth":16,"tileheight":16,"infinite":false,"layers":[{"type":"tilelayer","name":"ground","width":30,"height":15,"data":[2,2,2,2,2,2,2,2,2,2,2,2,2,2,2,2,2,2,2,2,2,2,2,2,2,2,2,2,2,2,2,3,3,3,3,1,1,1,1,1,1,1,1,1,1,5,1,1,1,1,1,1,1,1,1,1,3,3,3,2,2,3,3,3,3,1,1,3,3,3,1,1,1,1,1,5,1,1,1,4,4,4,1,1,1,1,3,3,3,2,2,3,3,3,1,1,1,3,3,3,1,1,1,1,1,5,1,1,1,4,4,4,4,1,1,1,3,3,3,2,2,1,1,1,1,1,1,3,3,3,1,1,1,1,1,5,1,1,1,1,4,4,4,1,1,1,1,1,1,2,2,1,1,2,2,2,2,1,1,1,1,1,1,1,1,5,1,1,1,1,1,1,1,1,1,2,2,2,2,2,2,1,1,2,1,1,2,1,1,1,1,3,3,3,1,5,1,1,3,3,3,1,1,1,1,1,2,1,1,2,2,1,1,2,1,1,2,1,1,1,1,3,3,3,1,5,1,1,3,3,3,1,1,1,1,1,2,7,1,2,2,1,1,2,2,2,2,1,1,1,1,3,3,3,1,5,1,1,1,1,1,1,1,1,1,1,2,1,1,2,2,1,1,1,1,1,1,1,1,1,1,1,1,1,1,1,1,1,1,1,1,1,1,1,1,1,1,6,2,2,2,1,1,1,1,1,3,3,3,3,1,1,1,1,1,5,1,1,1,4,4,1,1,1,1,1,1,1,2,2,2,1,1,1,1,1,3,3,3,3,1,1,1,1,1,5,1,1,1,4,4,4,1,1,1,1,3,3,3,2,2,1,1,1,1,1,3,3,3,3,1,1,1,1,1,5,1,1,1,1,4,1,1,1,1,3,3,3,3,2,2,1,1,1,1,1,1,1,1,1,1,1,1,1,1,6,1,1,1,1,1,1,1,1,1,3,3,3,2,2,2,2,2,2,2,2,2,2,2,2,2,2,2,2,2,2,2,2,2,2,2,2,2,2,2,2,2,2,2,2],"visible":true,"opacity":1,"x":0,"y":0},{"type":"tilelayer","name":"collision","width":30,"height":15,"data":[1,1,1,1,1,1,1,1,1,1,1,1,1,1,1,1,1,1,1,1,1,1,1,1,1,1,1,1,1,1,1,0,0,0,0,0,0,0,0,0,0,0,0,0,0,0,0,0,0,0,0,0,0,0,0,0,0,0,0,1,1,0,0,0,0,0,0,0,0,0,0,0,0,0,0,0,0,0,0,0,0,0,0,0,0,0,0,0,0,1,1,0,0,0,0,0,0,0,0,0,0,0,0,0,0,0,0,0,0,0,0,0,0,0,0,0,0,0,0,1,1,0,0,0,0,0,0,0,0,0,0,0,0,0,0,0,0,0,0,0,0,0,0,0,0,0,0,0,0,1,1,0,0,1,1,1,1,0,0,0,0,0,0,0,0,0,0,0,0,0,0,0,0,0,0,1,1,1,1,1,1,0,0,1,0,0,1,0,0,0,0,0,0,0,0,0,0,0,0,0,0,0,0,0,0,0,1,0,0,1,1,0,0,1,0,0,1,0,0,0,0,0,0,0,0,0,0,0,0,0,0,0,0,0,0,0,1,0,0,1,1,0,0,1,1,1,1,0,0,0,0,0,0,0,0,0,0,0,0,0,0,0,0,0,0,0,1,0,0,1,1,0,0,0,0,0,0,0,0,0,0,0,0,0,0,0,0,0,0,0,0,0,0,0,0,0,0,0,1,1,1,0,0,0,0,0,0,0,0,0,0,0,0,0,0,0,0,0,0,0,0,0,0,0,0,0,0,0,1,1,1,0,0,0,0,0,0,0,0,0,0,0,0,0,0,0,0,0,0,0,0,0,0,0,0,0,0,0,0,1,1,0,0,0,0,0,0,0,0,0,0,0,0,0,0,0,0,0,0,0,0,0,0,0,0,0,0,0,0,1,1,0,0,0,0,0,0,0,0,0,0,0,0,0,0,0,0,0,0,0,0,0,0,0,0,0,0,0,1,1,1,1,1,1,1,1,1,1,1,1,1,1,1,1,1,1,1,1,1,1,1,1,1,1,1,1,1,1,1,1],"visible":false,"opacity":1,"x":0,"y":0},{"type":"tilelayer","name":"encounters","width":30,"height":15,"data":[0,0,0,0,0,0,0,0,0,0,0,0,0,0,0,0,0,0,0,0,0,0,0,0,0,0,0,0,0,0,0,1,1,1,1,0,0,0,0,0,0,0,0,0,0,0,0,0,0,0,0,0,0,0,0,0,1,1,1,0,0,1,1,1,1,0,0,1,1,1,0,0,0,0,0,0,0,0,0,2,2,2,0,0,0,0,1,1,1,0,0,1,1,1,0,0,0,1,1,1,0,0,0,0,0,0,0,0,0,2,2,2,2,0,0,0,1,1,1,0,0,0,0,0,0,0,0,1,1,1,0,0,0,0,0,0,0,0,0,0,2,2,2,0,0,0,0,0,0,0,0,0,0,0,0,0,0,0,0,0,0,0,0,0,0,0,0,0,0,0,0,0,0,0,0,0,0,0,0,0,0,0,0,0,0,0,0,0,0,0,0,1,1,1,0,0,0,0,1,1,1,0,0,0,0,0,0,0,0,0,0,0,0,0,0,0,0,0,0,0,0,1,1,1,0,0,0,0,1,1,1,0,0,0,0,0,0,0,0,0,0,0,0,0,0,0,0,0,0,0,0,1,1,1,0,0,0,0,0,0,0,0,0,0,0,0,0,0,0,0,0,0,0,0,0,0,0,0,0,0,0,0,0,0,0,0,0,0,0,0,0,0,0,0,0,0,0,0,0,0,0,0,0,0,0,0,1,1,1,1,0,0,0,0,0,0,0,0,0,2,2,0,0,0,0,0,0,0,0,0,0,0,0,0,0,0,1,1,1,1,0,0,0,0,0,0,0,0,0,2,2,2,0,0,0,0,1,1,1,0,0,0,0,0,0,0,1,1,1,1,0,0,0,0,0,0,0,0,0,0,2,0,0,0,0,1,1,1,1,0,0,0,0,0,0,0,0,0,0,0,0,0,0,0,0,0,0,0,0,0,0,0,0,0,0,1,1,1,0,0,0,0,0,0,0,0,0,0,0,0,0,0,0,0,0,0,0,0,0,0,0,0,0,0,0,0,0,0,0,0],"visible":false,"opacity":1,"x":0,"y":0},{"type":"objectgroup","name":"spawns","objects":[{"id":1,"name":"N","type":"N","x":192,"y":32,"width":16,"height":16},{"id":2,"name":"G","type":"G","x":432,"y":112,"width":16,"height":16},{"id":3,"name":"D","type":"D","x":432,"y":144,"width":16,"height":16},{"id":4,"name":"P","type":"P","x":192,"y":192,"width":16,"height":16},{"id":5,"name":"E","type":"E","x":240,"y":208,"width":16,"height":16}],"visible":true,"opacity":1,"x":0,"y":0}],"tilesets":[{"firstgid":1,"name":"placeholder","tilewidth":16,"tileheight":16,"tilecount":8,"columns":8}]}