{"type":"map","version":"1.10","orientation":"orthogonal","renderorder":"right-down","width":12,"height":7,"tilewidth":16,"tileheight":16,"infinite":false,"layers":[{"type":"tilelayer","name":"ground","width":12,"height":7,"data":[2,2,2,2,2,2,2,2,2,2,2,2,2,1,1,1,1,1,1,1,1,1,1,2,2,1,1,1,1,1,1,1,1,1,1,2,2,1,1,1,1,1,1,1,1,1,1,2,2,1,1,1,1,1,1,1,1,1,1,2,2,1,1,1,1,1,1,1,1,1,1,2,2,2,2,2,2,6,6,2,2,2,2,2],"visible":true,"opacity":1,"x":0,"y":0},{"type":"tilelayer","name":"collision","width":12,"height":7,"data":[1,1,1,1,1,1,1,1,1,1,1,1,1,0,0,0,0,0,0,0,0,0,0,1,1,0,0,0,0,0,0,0,0,0,0,1,1,0,0,0,0,0,0,0,0,0,0,1,1,0,0,0,0,0,0,0,0,0,0,1,1,0,0,0,0,0,0,0,0,0,0,1,1,1,1,1,1,0,0,1,1,1,1,1],"visible":false,"opacity":1,"x":0,"y":0},{"type":"tilelayer","name":"encounters","width":12,"height":7,"data":[0,0,0,0,0,0,0,0,0,0,0,0,0,0,0,0,0,0,0,0,0,0,0,0,0,0,0,0,0,0,0,0,0,0,0,0,0,0,0,0,0,0,0,0,0,0,0,0,0,0,0,0,0,0,0,0,0,0,0,0,0,0,0,0,0,0,0,0,0,0,0,0,0,0,0,0,0,0,0,0,0,0,0,0],"visible":false,"opacity":1,"x":0,"y":0},{"type":"objectgroup","name":"spawns","objects":[{"id":1,"name":"N","type":"N","x":48,"y":32,"width":16,"height":16},{"id":2,"name":"P","type":"P","x":80,"y":64,"width":16,"height":16},{"id":3,"name":"D","type":"D","x":80,"y":96,"width":16,"height":16},{"id":4,"name":"D","type":"D","x":96,"y":96,"width":16,"height":16}],"visible":true,"opacity":1,"x":0,"y":0}],"tilesets":[{"firstgid":1,"name":"placeholder","tilewidth":16,"tileheight":16,"tilecount":8,"columns":8}]}